X:172
T: Slaunta Ree Philip
T: Sl\'ainte R\'i Pilib
N: O'Farrell's Pocket Companion v.2 (Sky ed. p.87)
N: "Irish" = A Health to King Philip
M: 3/4
L: 1/8
Q: 160 % "slow"
K: Ador
A|E2 A2 A2|A2 B2 AG|A2 B2 d2|e2 f2 g2|d2 B2 BA|
G4 ed|B2A2A2|A2B2 AG|A2B2d2|e2 f2 g2|B4A2|A4 z:|
e/d/|e2 a2 a2|a2 b2 ag|Ha4 ba|g2e2g2|d2B2 BA|
G4 ed|B2A2A2|A2B2AG|A2B2d2|e2f2g2|B4A2|A4 z:|
